X: 1697
T: Ma Seal's Venice Waltz
B: australian traditional tunes wiki
M:3/4
L:1/8
R: Waltz
Q: 1/4=100
K:G
V:1 
DG|:"G"B4(3ABA|"D"D3E FG|A6|B4A2|A2B,2D2|"G"G3GG2|G2 (3ABA G2|"D"F2c3c|
E4-Ec|D6-|D4E2|F4 (3cdc|B4A2|"G"B6-|B2d2c2|B4A2|
"D"D3E FG|A6|B4A2|A2B,2D2|"G"G3GG2|G2A2G2|"D"F2c4|E4c2|
D6-|D4E2|F4 (3cdc|B4 (3ABA|"G"G6-|G6:|
|:"G"{B}d6|"C"{c}e6|"G"{B}d3c (3BdB|"D"A4B2|1
c4d2|"D"f4(3efe|d3c ed|"G" B4B2:|2"D"(3cdc B2c2|e2-(3efe d2|"G"G6|G4z2||
% abcbook-tune_id 6342d53a77fce9572846e6a7


% abcbook-boost 0
% abcbook-tablature 
% abcbook-transpose 
% abcbook-lastupdated 1665324378551
% abcbook-soundfonts 
% abcbook-repeats 1
% NFF Book 2008

